packages/dnb-ui-lib/assets/icons/save_medium.svg

<svg width="24" height="24" viewBox="0 0 24 24" fill="none" xmlns="http://www.w3.org/2000/svg">
<path fill-rule="evenodd" clip-rule="evenodd" d="M12 0C12.4142 0 12.75 0.335786 12.75 0.75V8.68934L14.4697 6.96967C14.7626 6.67678 15.2374 6.67678 15.5303 6.96967C15.8232 7.26256 15.8232 7.73744 15.5303 8.03033L12.5303 11.0303C12.4584 11.1022 12.3755 11.1565 12.2871 11.1931C12.1987 11.2298 12.1017 11.25 12 11.25C11.8983 11.25 11.8013 11.2298 11.7129 11.1931C11.6245 11.1565 11.5416 11.1022 11.4697 11.0303L8.46967 8.03033C8.17678 7.73744 8.17678 7.26256 8.46967 6.96967C8.76256 6.67678 9.23744 6.67678 9.53033 6.96967L11.25 8.68934V0.75C11.25 0.335786 11.5858 0 12 0ZM4.5 19.5C4.08579 19.5 3.75 19.8358 3.75 20.25C3.75 20.6642 4.08579 21 4.5 21H19.5C19.9142 21 20.25 20.6642 20.25 20.25C20.25 19.8358 19.9142 19.5 19.5 19.5H4.5ZM18 17.625C18 17.0037 18.5037 16.5 19.125 16.5C19.7463 16.5 20.25 17.0037 20.25 17.625C20.25 18.2463 19.7463 18.75 19.125 18.75C18.5037 18.75 18 18.2463 18 17.625ZM2.25 13.5C1.00736 13.5 0 14.5074 0 15.75V21.75C0 22.9926 1.00736 24 2.25 24H21.75C22.9926 24 24 22.9926 24 21.75V15.75C24 14.5074 22.9926 13.5 21.75 13.5H2.25ZM1.5 15.75C1.5 15.3358 1.83579 15 2.25 15H21.75C22.1642 15 22.5 15.3358 22.5 15.75V21.75C22.5 22.1642 22.1642 22.5 21.75 22.5H2.25C1.83579 22.5 1.5 22.1642 1.5 21.75V15.75Z" fill="black"/>
</svg>

<svg width="24" height="24" viewBox="0 0 24 24" fill="none" xmlns="http://www.w3.org/2000/svg"><path fill-rule="evenodd" clip-rule="evenodd" d="M12 0a.75.75 0 01.75.75v7.94l1.72-1.72a.75.75 0 111.06 1.06l-3 3a.748.748 0 01-1.06 0l-3-3a.75.75 0 011.06-1.06l1.72 1.72V.75A.75.75 0 0112 0zM4.5 19.5a.75.75 0 000 1.5h15a.75.75 0 000-1.5h-15zM18 17.625a1.125 1.125 0 112.25 0 1.125 1.125 0 01-2.25 0zM2.25 13.5A2.25 2.25 0 000 15.75v6A2.25 2.25 0 002.25 24h19.5A2.25 2.25 0 0024 21.75v-6a2.25 2.25 0 00-2.25-2.25H2.25zm-.75 2.25a.75.75 0 01.75-.75h19.5a.75.75 0 01.75.75v6a.75.75 0 01-.75.75H2.25a.75.75 0 01-.75-.75v-6z" fill="#000"/></svg>
